X: 29337
T: Newcastle, The
R: hornpipe
M: 4/4
K: Dmajor
|:F>E|(3DFA d>e f>cd>B|A>GA>B A>FD>G|F>Ad>c B>dg>f|(3efe (3dcB A2 F>E|
(3DFA d>e f>cd>B|A>GA>B A>FD>G|F>Ad>c B>g (3edc|e2d2d2:|
|:g2|f>ed>f (3Adf (3agf|g>ec>e (3Ace (3gfe|f>ed>f e>dc>d|
(3efe (3dcB A2F>E|(3DFA d>e f>cd>B|A>GA>B A>FD>G|F>Ad>c B>g (3edc|e2d2d2:|

